public/darkfavicon.svg

<?xml version="1.0" encoding="UTF-8"?>
<!DOCTYPE svg PUBLIC "-//W3C//DTD SVG 1.1//EN" "http://www.w3.org/Graphics/SVG/1.1/DTD/svg11.dtd">
<svg xmlns="http://www.w3.org/2000/svg" version="1.1" width="192px" height="192px" style="shape-rendering:geometricPrecision; text-rendering:geometricPrecision; image-rendering:optimizeQuality; fill-rule:evenodd; clip-rule:evenodd" xmlns:xlink="http://www.w3.org/1999/xlink">
<!-- Dark theme version of the Pixelated Empathy favicon -->
<g><path style="opacity:0.985" fill="#1a1a1a" d="M 82.5,-0.5 C 91.1667,-0.5 99.8333,-0.5 108.5,-0.5C 131.503,3.0009 150.836,13.3342 166.5,30.5C 165.153,29.9717 163.819,29.805 162.5,30C 166.783,33.4454 170.117,37.6121 172.5,42.5C 171.218,44.1792 170.218,46.0126 169.5,48C 167.288,48.7891 165.288,48.6225 163.5,47.5C 165.288,47.7852 166.955,47.4519 168.5,46.5C 167.975,45.8076 167.308,45.3076 166.5,45C 170.498,44.5071 171.332,42.6738 169,39.5C 164.665,33.1277 158.832,29.2943 151.5,28C 139.9,35.6815 133.234,46.5149 131.5,60.5C 130.514,64.97 130.181,69.6367 130.5,74.5C 130.436,78.2198 129.936,81.8865 129,85.5C 127.268,90.6165 123.768,92.4499 118.5,91C 109.676,85.339 100.176,81.1723 90,78.5C 82.7088,80.2944 76.5422,83.961 71.5,89.5C 67.043,93.1874 62.043,94.1874 56.5,92.5C 48.6854,86.2064 46.0187,78.2064 48.5,68.5C 49.4916,68.6716 50.1583,68.3382 50.5,67.5C 53.8333,68.5 57.1667,69.5 60.5,70.5C 67.2105,70.713 73.8772,70.3796 80.5,69.5C 85.439,70.6481 88.939,68.9814 91,64.5C 91.6232,56.135 91.2898,47.8016 90,39.5C 88.3304,35.6404 85.497,33.1404 81.5,32C 76.2355,30.5172 70.9021,29.3505 65.5,28.5C 60.0138,30.6478 55.3472,33.9812 51.5,38.5C 55.0591,36.1357 58.8924,34.1357 63,32.5C 64.8231,33.6512 66.6564,34.8179 68.5,36C 72.211,36.1747 75.8776,36.6747 79.5,37.5C 76.1032,39.5259 72.7699,41.5259 69.5,43.5C 64.9113,44.614 61.2446,46.9474 58.5,50.5C 54.3016,48.0361 49.8016,46.0361 45,44.5C 44.2352,44.5699 43.7352,44.9033 43.5,45.5C 40.9382,48.3009 39.7716,51.6343 40,55.5C 40.2784,54.5842 40.7784,53.9175 41.5,53.5C 41.4796,58.1338 42.6462,62.4671 45,66.5C 45.6667,71.8333 45.6667,77.1667 45,82.5C 43.8783,84.6238 42.3783,86.4571 40.5,88C 36.5352,89.9934 32.5352,91.9934 28.5,94C 25.141,96.0342 24.8076,98.3676 27.5,101C 30.8981,102.357 33.8981,104.19 36.5,106.5C 35.2511,108.136 33.5844,109.303 31.5,110C 21.839,111.413 13.6723,115.58 7,122.5C 6.15292,126.072 6.65292,129.406 8.5,132.5C 7.83333,132.5 7.16667,132.5 6.5,132.5C 3.21499,124.678 0.88166,116.678 -0.5,108.5C -0.5,99.8333 -0.5,91.1667 -0.5,82.5C 8.83333,36.5 36.5,8.83333 82.5,-0.5 Z"/></g>
<g><path style="opacity:1" fill="#d4d1ce" d="M 51.5,38.5 C 50.4382,40.7565 48.7715,41.9232 46.5,42C 47.7893,40.1978 49.4559,39.0312 51.5,38.5 Z"/></g>
<g><path style="opacity:1" fill="#e8e8e8" d="M 80.5,69.5 C 81.2001,65.0012 83.7001,63.3345 88,64.5C 91.0328,59.9163 91.1994,55.2496 88.5,50.5C 89.4847,48.9017 89.6514,47.235 89,45.5C 88.6667,45.8333 88.3333,46.1667 88,46.5C 87.6258,45.5838 87.1258,44.7504 86.5,44C 84.4259,44.2273 82.4259,44.0606 80.5,43.5C 79.1936,44.9122 78.3603,46.5789 78,48.5C 77.6667,48.1667 77.3333,47.8333 77,47.5C 76.3333,48.8333 75.6667,50.1667 75,51.5C 74.3741,49.0087 73.5407,49.0087 72.5,51.5C 71.5,50.5 70.5,49.5 69.5,48.5C 72.0472,46.5456 72.0472,44.8789 69.5,43.5C 72.7699,41.5259 76.1032,39.5259 79.5,37.5C 75.8776,36.6747 72.211,36.1747 68.5,36C 66.6564,34.8179 64.8231,33.6512 63,32.5C 58.8924,34.1357 55.0591,36.1357 51.5,38.5C 55.3472,33.9812 60.0138,30.6478 65.5,28.5C 70.9021,29.3505 76.2355,30.5172 81.5,32C 85.497,33.1404 88.3304,35.6404 90,39.5C 91.2898,47.8016 91.6232,56.135 91,64.5C 88.939,68.9814 85.439,70.6481 80.5,69.5 Z"/></g>
<g><path style="opacity:1" fill="#b8b6b3" d="M 85.5,36.5 C 87.332,37.1405 87.6653,38.1405 86.5,39.5C 85.6143,38.675 85.281,37.675 85.5,36.5 Z"/></g>
<g><path style="opacity:1" fill="#f0f0f0" d="M 69.5,43.5 C 72.0472,44.8789 72.0472,46.5456 69.5,48.5C 70.5,49.5 71.5,50.5 72.5,51.5C 73.5407,49.0087 74.3741,49.0087 75,51.5C 75.6667,50.1667 76.3333,48.8333 77,47.5C 77.3333,47.8333 77.6667,48.1667 78,48.5C 78.3603,46.5789 79.1936,44.9122 80.5,43.5C 82.4259,44.0606 84.4259,44.2273 86.5,44C 87.1258,44.7504 87.6258,45.5838 88,46.5C 88.3333,46.1667 88.6667,45.8333 89,45.5C 89.6514,47.235 89.4847,48.9017 88.5,50.5C 91.1994,55.2496 91.0328,59.9163 88,64.5C 83.7001,63.3345 81.2001,65.0012 80.5,69.5C 73.8772,70.3796 67.2105,70.713 60.5,70.5C 60.631,69.7611 60.4643,69.0944 60,68.5C 58.1879,67.0229 56.3545,65.6896 54.5,64.5C 56.2655,61.8774 56.9321,58.8774 56.5,55.5C 57.8583,56.6256 59.1916,56.6256 60.5,55.5C 57.8068,54.4682 57.1402,52.8015 58.5,50.5C 61.2446,46.9474 64.9113,44.614 69.5,43.5 Z"/></g>
<!-- Additional dark-themed content paths with adjusted fills for dark mode -->
<g><path style="opacity:0.986" fill="#141414" d="M 166.5,30.5 C 180.198,45.2298 188.531,62.5631 191.5,82.5C 191.5,91.1667 191.5,99.8333 191.5,108.5C 182.289,154.045 154.955,181.711 109.5,191.5C 100.167,191.5 90.8333,191.5 81.5,191.5C 46.2346,184.903 21.2346,165.236 6.5,132.5C 7.16667,132.5 7.83333,132.5 8.5,132.5C 9.85408,134.696 11.8541,136.196 14.5,137C 21.1497,136.947 27.8164,136.78 34.5,136.5C 39.6295,140.812 43.4628,146.146 46,152.5C 50.517,156.242 55.6837,157.409 61.5,156C 66.7564,153.859 72.0897,152.026 77.5,150.5C 83.7974,149.68 90.1308,149.347 96.5,149.5C 101.219,149.629 105.552,150.962 109.5,153.5C 112.973,155.637 115.306,158.637 116.5,162.5C 116.335,165.518 116.502,168.518 117,171.5C 126.072,175.022 127.739,172.689 122,164.5C 121.505,162.527 121.338,160.527 121.5,158.5C 122.11,157.609 122.443,156.609 122.5,155.5C 130.137,149.895 138.803,146.728 148.5,146C 150.066,145.392 151.4,144.558 152.5,143.5C 153.468,141.393 153.802,139.059 153.5,136.5C 157.098,131.726 160.931,127.06 165,122.5C 170.086,113.243 168.086,106.243 159,101.5C 157.333,95.8333 153.667,92.1667 148,90.5C 145.961,80.9216 145.295,71.2549 146,61.5C 147.247,55.0067 150.08,49.34 154.5,44.5C 157.314,46.1046 160.314,47.1046 163.5,47.5C 165.288,48.6225 167.288,48.7891 169.5,48C 170.218,46.0126 171.218,44.1792 172.5,42.5C 170.117,37.6121 166.783,33.4454 162.5,30C 163.819,29.805 165.153,29.9717 166.5,30.5 Z"/></g>
<!-- Continue with additional shapes but with dark theme color adjustments... -->
</svg>

<svg xmlns="http://www.w3.org/2000/svg" width="192" height="192" style="shape-rendering:geometricPrecision;text-rendering:geometricPrecision;image-rendering:optimizeQuality;fill-rule:evenodd;clip-rule:evenodd"><path fill="#1a1a1a" d="M82.5-.5h26q34.504 5.25 58 31-2.021-.792-4-.5 6.425 5.168 10 12.5a20.5 20.5 0 0 0-3 5.5q-3.318 1.185-6-.5 2.682.428 5-1a4.45 4.45 0 0 0-2-1.5q5.998-.74 2.5-5.5-6.502-9.558-17.5-11.5-17.4 11.523-20 32.5-1.479 6.705-1 14a47 47 0 0 1-1.5 11q-2.598 7.675-10.5 5.5A99 99 0 0 0 90 78.5q-10.937 2.691-18.5 11-6.685 5.53-15 3-11.722-9.441-8-24 1.487.257 2-1l10 3q10.065.32 20-1 7.409 1.722 10.5-5a109.4 109.4 0 0 0-1-25q-2.505-5.79-8.5-7.5a138 138 0 0 0-16-3.5q-8.23 3.222-14 10a62.5 62.5 0 0 1 11.5-6 941 941 0 0 1 5.5 3.5q5.567.262 11 1.5-5.095 3.039-10 6-6.883 1.67-11 7-6.297-3.696-13.5-6-1.148.105-1.5 1-3.843 4.2-3.5 10 .417-1.374 1.5-2-.03 6.95 3.5 13a64.3 64.3 0 0 1 0 16 17.8 17.8 0 0 1-4.5 5.5 3049 3049 0 0 1-12 6q-5.038 3.052-1 7 5.097 2.035 9 5.5-1.874 2.454-5 3.5-14.492 2.12-24.5 12.5-1.27 5.359 1.5 10h-2q-4.927-11.733-7-24v-26q14-69 83-83" style="opacity:.985"/><path fill="#d4d1ce" d="M51.5 38.5q-1.592 3.385-5 3.5 1.935-2.703 5-3.5" style="opacity:1"/><path fill="#e8e8e8" d="M80.5 69.5q1.05-6.749 7.5-5 4.55-6.876.5-14 1.477-2.397.5-5l-1 1a9.5 9.5 0 0 0-1.5-2.5q-3.111.34-6-.5-1.96 2.118-2.5 5l-1-1-2 4q-.94-3.737-2.5 0l-3-3q3.82-2.931 0-5 4.905-2.961 10-6a62.7 62.7 0 0 0-11-1.5 941 941 0 0 0-5.5-3.5 62.5 62.5 0 0 0-11.5 6q5.77-6.778 14-10 8.104 1.275 16 3.5 5.995 1.71 8.5 7.5a109.4 109.4 0 0 1 1 25q-3.091 6.722-10.5 5" style="opacity:1"/><path fill="#b8b6b3" d="M85.5 36.5q2.748.96 1 3-1.329-1.238-1-3" style="opacity:1"/><path fill="#f0f0f0" d="M69.5 43.5q3.82 2.069 0 5l3 3q1.56-3.737 2.5 0l2-4 1 1q.54-2.882 2.5-5 2.889.84 6 .5a9.5 9.5 0 0 1 1.5 2.5l1-1q.977 2.603-.5 5 4.05 7.124-.5 14-6.45-1.749-7.5 5-9.935 1.32-20 1a2.43 2.43 0 0 0-.5-2 60 60 0 0 0-5.5-4q2.648-3.934 2-9 2.037 1.689 4 0-4.04-1.548-2-5 4.117-5.33 11-7" style="opacity:1"/><path fill="#141414" d="M166.5 30.5q20.547 22.095 25 52v26q-13.817 68.317-82 83h-28q-52.898-9.896-75-59h2q2.031 3.294 6 4.5 9.974-.08 20-.5 7.695 6.469 11.5 16 6.776 5.613 15.5 3.5a151 151 0 0 1 16-5.5 124 124 0 0 1 19-1q7.078.193 13 4 5.21 3.206 7 9a41 41 0 0 0 .5 9q13.608 5.283 5-7a18.5 18.5 0 0 1-.5-6 5.73 5.73 0 0 0 1-3q11.455-8.408 26-9.5 2.35-.913 4-2.5 1.452-3.161 1-7a219 219 0 0 1 11.5-14q7.629-13.886-6-21-2.5-8.5-11-11a103 103 0 0 1-2-29q1.87-9.74 8.5-17a24 24 0 0 0 9 3q2.682 1.685 6 .5a20.5 20.5 0 0 1 3-5.5q-3.575-7.332-10-12.5 1.979-.292 4 .5" style="opacity:.986"/></svg>
